public/img/icons/prize8.svg

<svg width="34" height="34" viewBox="0 0 34 34" fill="none" xmlns="http://www.w3.org/2000/svg">
<path d="M8.96018 12.8049L10.1884 13.6829C10.1219 13.6343 10.0429 13.6046 9.96006 13.5973C9.84221 13.5873 9.72422 13.6149 9.62393 13.676L8.39571 12.798C8.49587 12.7365 8.61384 12.7084 8.73184 12.7179C8.81461 12.7263 8.8935 12.7564 8.96018 12.8049Z" fill="#856400"/>
<path d="M8.39571 12.798L9.62393 13.676C9.60272 13.6885 9.5823 13.7022 9.56289 13.7173L8.33466 12.8393C8.35408 12.8242 8.3745 12.8105 8.39571 12.798Z" fill="#8A6800"/>
<path d="M8.33466 12.8393L9.56289 13.7173L9.51614 13.756L8.28935 12.878C8.30344 12.864 8.31855 12.851 8.33466 12.8393Z" fill="#8F6C00"/>
<path d="M8.28935 12.878L9.51614 13.756C9.50313 13.7682 9.49083 13.7812 9.47928 13.7947L8.25106 12.9153C8.26311 12.9022 8.27588 12.8897 8.28935 12.878Z" fill="#946F00"/>
<path d="M8.25106 12.9153L9.47928 13.7947L9.44662 13.8318L8.21982 12.9593C8.22942 12.9458 8.23985 12.9329 8.25102 12.9206" fill="#997300"/>
<path d="M8.21982 12.9593L9.44663 13.8374L9.41969 13.8761L8.19147 12.9981C8.20011 12.9846 8.20956 12.9716 8.21982 12.9593Z" fill="#9E7700"/>
<path d="M8.19148 12.9924L9.4197 13.8704C9.41119 13.8842 9.40268 13.8981 9.39559 13.9119L8.16736 13.0325C8.17587 13.0187 8.18297 13.0049 8.19148 12.9924Z" fill="#A37B00"/>
<path d="M8.16736 13.0325L9.39559 13.9119C9.38766 13.9257 9.38051 13.9403 9.37426 13.9549L8.14605 13.0755L8.16736 13.0325Z" fill="#A87F00"/>
<path d="M8.14605 13.0755L9.37426 13.9549C9.36727 13.9707 9.36113 13.9867 9.35585 14.0031L8.12763 13.1237C8.12763 13.1072 8.13895 13.0921 8.14605 13.0755Z" fill="#AD8300"/>
<path d="M8.12763 13.1237L9.35585 14.0031C9.35585 14.0224 9.34448 14.0418 9.3388 14.0611L8.112 13.1817C8.112 13.1624 8.12195 13.1431 8.12763 13.1237Z" fill="#B38600"/>
<path d="M8.112 13.1817L9.3388 14.0611C9.33392 14.0871 9.33068 14.1134 9.32894 14.1398L8.10073 13.2604C8.10241 13.234 8.10614 13.2076 8.112 13.1817Z" fill="#B88A00"/>
<path d="M8.10073 13.2604L9.32894 14.1398C9.32471 14.1756 9.32467 14.2117 9.3289 14.2475L8.10352 13.3736C8.09999 13.3373 8.09999 13.3008 8.10352 13.2645" fill="#BD8E00"/>
<path d="M12.6917 15.1766L13.9199 16.056L13.8859 16.0905L12.6576 15.2111C12.6697 15.2003 12.6811 15.1888 12.6917 15.1766Z" fill="#946F00"/>
<path d="M12.6576 15.2111L13.8859 16.0905C13.8714 16.1037 13.8563 16.1163 13.8404 16.1279L12.6122 15.2499C12.6278 15.2375 12.6434 15.2249 12.6576 15.2111Z" fill="#8F6C00"/>
<path d="M12.6122 15.2499L13.8404 16.1279C13.8221 16.1433 13.8021 16.1567 13.7809 16.1679L12.5541 15.2899L12.6122 15.2499Z" fill="#8A6800"/>
<path d="M12.5541 15.2899L13.7809 16.1679C13.6808 16.2284 13.5636 16.2556 13.4462 16.2463C13.3637 16.2378 13.285 16.2083 13.2179 16.1607L11.9897 15.2813C12.0565 15.3292 12.1354 15.3588 12.218 15.3669C12.3357 15.3767 12.4534 15.35 12.5541 15.2899Z" fill="#856400"/>
<path d="M17.4544 10.0119L18.6826 10.8899L13.9213 16.0558L12.6931 15.1764L17.4544 10.0119Z" fill="#A27A00"/>
<path d="M8.1035 13.3695L9.33171 14.2489L10.3456 22.0709L9.11741 21.1929L8.1035 13.3695Z" fill="#CA9800"/>
<path d="M9.11759 21.1917L10.3456 22.0709C10.3507 22.1146 10.3624 22.1575 10.3799 22.1981L9.15163 21.3187C9.13416 21.2781 9.1227 21.2354 9.11759 21.1917Z" fill="#BD8E00"/>
<path d="M9.15163 21.3187L10.3799 22.1981C10.3898 22.2213 10.4011 22.244 10.4139 22.2659L9.18709 21.381C9.17303 21.3596 9.16116 21.337 9.15163 21.3133" fill="#B88A00"/>
<path d="M9.18709 21.381L10.4139 22.2604C10.4243 22.2762 10.4357 22.2914 10.448 22.306L9.21975 21.4266C9.2076 21.4123 9.19666 21.397 9.18709 21.381Z" fill="#B38600"/>
<path d="M9.21971 21.4318L10.4479 22.3112C10.4579 22.3236 10.4692 22.3346 10.4805 22.3471L9.25233 21.4677C9.24071 21.4564 9.22982 21.4444 9.21971 21.4318Z" fill="#AD8300"/>
<path d="M9.25233 21.4677L10.4805 22.3471L10.5146 22.376L9.28634 21.498L9.25233 21.4677Z" fill="#A87F00"/>
<path d="M9.28634 21.498L10.5146 22.376L10.533 22.3901L9.30478 21.5189L9.28634 21.5051" fill="#A37B00"/>
<path d="M18.277 9.89038L19.5052 10.7684C19.4257 10.7123 19.3321 10.678 19.2343 10.669C19.0973 10.6571 18.96 10.6885 18.8429 10.7587L17.6161 9.87933C17.7327 9.80906 17.8696 9.77757 18.0061 9.7896C18.1041 9.79888 18.1976 9.8337 18.277 9.89038Z" fill="#856400"/>
<path d="M17.6161 9.87933L18.8429 10.7587C18.8202 10.7725 18.7975 10.7877 18.7748 10.8043L17.5466 9.92628C17.5685 9.90894 17.5917 9.89324 17.6161 9.87933Z" fill="#8A6800"/>
<path d="M17.5466 9.92204L18.7748 10.8001C18.7563 10.8139 18.7393 10.829 18.7223 10.8442L17.4941 9.96622C17.5111 9.94965 17.5296 9.93585 17.5466 9.92204Z" fill="#8F6C00"/>
<path d="M17.4941 9.97045L18.7223 10.8485L18.6826 10.8899L17.4544 10.0105L17.4941 9.97045Z" fill="#946F00"/>
<path d="M21.6893 16.2188L22.9175 17.0982C22.8293 17.1394 22.7313 17.1566 22.6338 17.1479C22.5497 17.1396 22.4694 17.1096 22.4012 17.0609L21.1744 16.1829C21.242 16.2314 21.322 16.261 21.4056 16.2685C21.5031 16.2773 21.6011 16.2601 21.6893 16.2188Z" fill="#856400"/>
<path d="M24.8367 2.35L26.0649 3.2294C26.255 3.36745 26.4422 3.5055 26.6322 3.65597L25.4054 2.77658C25.2163 2.62748 25.0272 2.48529 24.8381 2.35" fill="#A37B00"/>
<path d="M25.4026 2.7766L26.6294 3.65599C27.0401 3.98389 27.433 4.33225 27.8066 4.69967L26.5784 3.82028C26.1907 3.44201 25.7988 3.09412 25.4026 2.7766Z" fill="#A87F00"/>
<path d="M26.5784 3.82028L27.8066 4.69967C28.3269 5.20985 28.8184 5.74728 29.2787 6.30943L28.0505 5.43141C27.5902 4.86878 27.0988 4.3309 26.5784 3.82028Z" fill="#AD8300"/>
<path d="M28.0505 5.43141L29.2787 6.30943C29.6456 6.75672 30.0101 7.23378 30.3722 7.74089L29.144 6.8615C28.7837 6.35438 28.4193 5.87778 28.0505 5.43141Z" fill="#B38600"/>
<path d="M25.5087 14.4446L26.7369 15.3227L22.9175 17.0982L21.6906 16.2186L25.5087 14.4446Z" fill="#886700"/>
<path d="M26.0178 14.4786L27.246 15.358C27.1798 15.3099 27.1013 15.2803 27.0191 15.2724C26.9214 15.2645 26.8234 15.2826 26.7354 15.3249L25.5086 14.4455C25.5964 14.4029 25.6946 14.3848 25.7923 14.393C25.8745 14.401 25.953 14.4305 26.0192 14.4786" fill="#856400"/>
<path d="M13.5465 32.4344L14.7747 33.3124C13.0104 33.1357 11.3496 32.4841 9.76821 31.3507L8.53998 30.4713C10.1228 31.6047 11.7822 32.2563 13.5465 32.4344Z" fill="#856400"/>
<path d="M29.144 6.8615C34.8425 14.8506 33.461 21.4744 24.9568 28.0071C20.7018 31.272 16.949 32.7602 13.5465 32.4358C10.1185 32.0907 7.08201 29.9509 4.24551 25.975C1.40901 21.999 0.32692 18.3586 1.00351 14.9004C1.71273 11.3828 4.18204 8.09439 8.43414 4.83083C12.6862 1.56726 16.4547 0.0680096 19.8642 0.402097C23.2738 0.736184 26.3018 2.88144 29.144 6.8615ZM26.1413 15.1447C26.337 14.7886 26.1186 14.4296 25.791 14.3965C25.6933 14.3882 25.5951 14.4064 25.5073 14.4489L21.6878 16.2243C21.5997 16.2657 21.5016 16.2829 21.4042 16.274C21.3204 16.2663 21.2404 16.2365 21.1727 16.1878C21.105 16.1392 21.0521 16.0735 21.0198 15.9979L18.45 10.1127C18.4121 10.025 18.3503 9.94895 18.2713 9.89277C18.1924 9.8366 18.0992 9.80239 18.0018 9.79382C17.8985 9.78562 17.7946 9.80136 17.6987 9.83976C17.6028 9.87815 17.5176 9.9381 17.4501 10.0147L12.6874 15.1806C12.6293 15.2463 12.5562 15.2978 12.4739 15.3309C12.3916 15.364 12.3025 15.3778 12.2137 15.3711C12.1219 15.3619 12.035 15.3264 11.9641 15.269L8.9857 12.8268C8.91401 12.7675 8.82545 12.7309 8.73183 12.7219C8.64468 12.718 8.5577 12.7325 8.47686 12.7645C8.39603 12.7964 8.32326 12.845 8.26356 12.9069C8.20385 12.9688 8.15864 13.0426 8.13101 13.1232C8.10338 13.2037 8.09401 13.2892 8.10352 13.3736L9.11743 21.1956C9.12786 21.3011 9.1763 21.3995 9.25418 21.4736C9.33205 21.5476 9.43434 21.5924 9.54291 21.6001L21.5742 22.7818C21.6882 22.7891 21.8019 22.7637 21.9013 22.7087C22.0006 22.6537 22.0812 22.5716 22.1331 22.4726L26.1484 15.1434" fill="url(#paint0_linear_683_10323)"/>
<path d="M29.144 6.8615L30.3722 7.74089C30.6625 8.14769 30.9348 8.552 31.1891 8.95419L29.9623 8.0748C29.7089 7.67445 29.4361 7.27013 29.144 6.8615Z" fill="#B38600"/>
<path d="M29.9623 8.0748L31.1891 8.95419C31.7911 9.8906 32.3129 10.8735 32.7492 11.8932L31.521 11.0138C31.0841 9.99432 30.5623 9.01134 29.9609 8.07465" fill="#B88A00"/>
<path d="M31.5167 11.0141L32.7449 11.8935C33.5576 13.8263 33.9036 15.6844 33.7858 17.4888L32.5576 16.6094C32.6768 14.805 32.3294 12.9469 31.5167 11.0141Z" fill="#BD8E00"/>
<path d="M32.5576 16.6094L33.7858 17.4888C33.7506 18.0152 33.6761 18.5384 33.5631 19.0544L32.3349 18.175C32.4478 17.6591 32.5223 17.1358 32.5576 16.6094Z" fill="#B88A00"/>
<path d="M32.3349 18.175L33.5631 19.0544C33.4786 19.4368 33.3735 19.8146 33.2482 20.1863L32.02 19.3097C32.1452 18.9379 32.2503 18.5601 32.3349 18.1776" fill="#B38600"/>
<path d="M32.02 19.3097L33.2482 20.189C33.1347 20.5259 33.0042 20.8614 32.8567 21.1954L31.6299 20.316C31.7718 19.982 31.9136 19.6465 32.02 19.3097Z" fill="#AD8300"/>
<path d="M31.63 20.3131L32.8568 21.1925C32.715 21.5169 32.5547 21.8386 32.3788 22.1589L31.152 21.2795C31.3265 20.9578 31.4867 20.6361 31.63 20.3131Z" fill="#A87F00"/>
<path d="M31.1548 21.2811L32.3816 22.1605C32.201 22.4909 32.0039 22.8204 31.7902 23.149L30.5619 22.2696C30.7761 21.941 30.9733 21.6124 31.1548 21.2811Z" fill="#A37B00"/>
<path d="M30.5591 22.2693L31.7873 23.1486C31.5528 23.5048 31.2989 23.8601 31.0257 24.2144L29.7989 23.3364C30.0721 22.9821 30.3256 22.6263 30.5591 22.2693Z" fill="#9E7700"/>
<path d="M29.7989 23.3364L31.0257 24.2144C30.7127 24.6221 30.3719 25.028 30.0031 25.432L28.7749 24.5526C29.1436 24.1486 29.485 23.7432 29.7989 23.3364Z" fill="#997300"/>
<path d="M28.7749 24.5553L30.0031 25.4347C29.5578 25.9234 29.0736 26.4108 28.5508 26.8967L27.3225 26.0187C27.8464 25.5318 28.3305 25.044 28.7749 24.5553Z" fill="#946F00"/>
<path d="M27.3253 26.016L28.5535 26.894C27.8387 27.5594 27.0501 28.223 26.1878 28.8847L26.1708 28.8972L24.9425 28.0191L24.9596 28.0053C25.8219 27.3436 26.6105 26.6805 27.3253 26.016Z" fill="#8F6C00"/>
<path d="M24.9398 28.0193L26.168 28.8973C25.1907 29.6525 24.1682 30.3504 23.1058 30.9874L21.8776 30.108C22.94 29.4715 23.9625 28.774 24.9398 28.0193Z" fill="#8A6800"/>
<path d="M21.8776 30.108L23.1058 30.9874C20.0877 32.7821 17.3319 33.5568 14.7747 33.3124L13.5465 32.4344C16.0994 32.6774 18.8595 31.8972 21.8776 30.108Z" fill="#856400"/>
<defs>
<linearGradient id="paint0_linear_683_10323" x1="28.9819" y1="4.45756" x2="6.72073" y2="29.9957" gradientUnits="userSpaceOnUse">
<stop stop-color="#FFB900"/>
<stop offset="0.29" stop-color="#FFE89F"/>
<stop offset="1" stop-color="#A37207"/>
</linearGradient>
</defs>
</svg>

<svg width="34" height="34" fill="none" xmlns="http://www.w3.org/2000/svg"><path d="m8.96 12.805 1.228.878a.455.455 0 0 0-.228-.086.556.556 0 0 0-.336.079l-1.228-.878c.1-.062.218-.09.336-.08a.469.469 0 0 1 .228.087Z" fill="#856400"/><path d="m8.396 12.798 1.228.878a.573.573 0 0 0-.061.041l-1.228-.878a.574.574 0 0 1 .06-.041Z" fill="#8A6800"/><path d="m8.335 12.84 1.228.877-.047.039-1.227-.878a.387.387 0 0 1 .046-.039Z" fill="#8F6C00"/><path d="m8.29 12.878 1.226.878a.488.488 0 0 0-.037.039l-1.228-.88a.478.478 0 0 1 .038-.037Z" fill="#946F00"/><path d="m8.251 12.915 1.228.88-.032.037-1.227-.873a.417.417 0 0 1 .031-.038" fill="#997300"/><path d="m8.22 12.96 1.227.877-.027.04-1.229-.879a.382.382 0 0 1 .029-.039Z" fill="#9E7700"/><path d="m8.191 12.992 1.229.878a.626.626 0 0 0-.024.042l-1.229-.88c.009-.013.016-.027.024-.04Z" fill="#A37B00"/><path d="m8.167 13.033 1.229.879a.413.413 0 0 0-.022.043l-1.228-.88.021-.042Z" fill="#A87F00"/><path d="m8.146 13.075 1.228.88a.49.49 0 0 0-.018.048l-1.228-.88c0-.016.01-.03.018-.047Z" fill="#AD8300"/><path d="m8.128 13.124 1.228.88c0 .018-.012.038-.017.057l-1.227-.88c0-.019.01-.038.016-.057Z" fill="#B38600"/><path d="m8.112 13.182 1.227.88a.663.663 0 0 0-.01.078L8.1 13.26a.501.501 0 0 1 .011-.078Z" fill="#B88A00"/><path d="m8.1 13.26 1.229.88a.459.459 0 0 0 0 .107l-1.225-.873a.563.563 0 0 1 0-.11" fill="#BD8E00"/><path d="m12.692 15.177 1.228.879-.034.034-1.228-.879a.383.383 0 0 0 .034-.034Z" fill="#946F00"/><path d="m12.658 15.211 1.228.88a.545.545 0 0 1-.046.037l-1.228-.878a.603.603 0 0 0 .046-.039Z" fill="#8F6C00"/><path d="m12.612 15.25 1.228.878a.337.337 0 0 1-.06.04l-1.226-.878.058-.04Z" fill="#8A6800"/><path d="m12.554 15.29 1.227.878a.561.561 0 0 1-.335.078.48.48 0 0 1-.228-.085l-1.228-.88a.47.47 0 0 0 .228.086.564.564 0 0 0 .336-.077Z" fill="#856400"/><path d="m17.454 10.012 1.229.878-4.762 5.166-1.228-.88 4.761-5.164Z" fill="#A27A00"/><path d="m8.104 13.37 1.228.879 1.014 7.822-1.229-.878-1.014-7.824Z" fill="#CA9800"/><path d="m9.118 21.192 1.228.879a.455.455 0 0 0 .034.127l-1.228-.88a.455.455 0 0 1-.034-.126Z" fill="#BD8E00"/><path d="m9.152 21.319 1.228.88c.01.022.021.045.034.067l-1.227-.885a.384.384 0 0 1-.035-.068" fill="#B88A00"/><path d="m9.187 21.381 1.227.88c.01.015.022.03.034.045l-1.228-.88a.34.34 0 0 1-.033-.045Z" fill="#B38600"/><path d="m9.22 21.432 1.228.88.032.035-1.228-.88a.394.394 0 0 1-.032-.035Z" fill="#AD8300"/><path d="m9.252 21.468 1.228.88.035.028-1.229-.878-.034-.03Z" fill="#A87F00"/><path d="m9.286 21.498 1.229.878.018.014-1.228-.871-.019-.014" fill="#A37B00"/><path d="m18.277 9.89 1.228.878a.559.559 0 0 0-.27-.099.652.652 0 0 0-.392.09l-1.227-.88a.646.646 0 0 1 .39-.09c.098.01.192.045.271.101Z" fill="#856400"/><path d="m17.616 9.88 1.227.879a.963.963 0 0 0-.068.045l-1.228-.878a.554.554 0 0 1 .07-.047Z" fill="#8A6800"/><path d="m17.547 9.922 1.228.878a.77.77 0 0 0-.053.044l-1.228-.878c.017-.016.036-.03.053-.044Z" fill="#8F6C00"/><path d="m17.494 9.97 1.228.878-.04.042-1.228-.88.04-.04Z" fill="#946F00"/><path d="m21.69 16.219 1.227.88a.554.554 0 0 1-.283.049.482.482 0 0 1-.233-.087l-1.227-.878a.469.469 0 0 0 .232.085.552.552 0 0 0 .283-.05Z" fill="#856400"/><path d="m24.837 2.35 1.228.88c.19.137.377.276.567.426l-1.227-.88c-.189-.149-.378-.29-.567-.426" fill="#A37B00"/><path d="m25.403 2.777 1.226.879c.411.328.804.676 1.178 1.044l-1.229-.88c-.387-.378-.78-.726-1.175-1.043Z" fill="#A87F00"/><path d="m26.578 3.82 1.229.88c.52.51 1.011 1.047 1.472 1.61L28.05 5.43c-.46-.562-.951-1.1-1.472-1.61Z" fill="#AD8300"/><path d="m28.05 5.431 1.229.878c.367.448.731.925 1.093 1.432l-1.228-.88c-.36-.507-.725-.983-1.093-1.43Z" fill="#B38600"/><path d="m25.509 14.445 1.228.878-3.82 1.775-1.226-.88 3.818-1.773Z" fill="#886700"/><path d="m26.018 14.479 1.228.879a.461.461 0 0 0-.227-.086.552.552 0 0 0-.284.053l-1.226-.88a.546.546 0 0 1 .283-.052c.082.008.161.037.227.086M13.546 32.434l1.229.878c-1.765-.176-3.425-.828-5.007-1.961l-1.228-.88c1.583 1.134 3.242 1.785 5.007 1.963Z" fill="#856400"/><path d="M29.144 6.862c5.699 7.989 4.317 14.612-4.187 21.145-4.255 3.265-8.008 4.753-11.41 4.429-3.429-.345-6.465-2.485-9.301-6.461C1.409 21.999.326 18.359 1.004 14.9c.709-3.517 3.178-6.806 7.43-10.07 4.252-3.263 8.02-4.762 11.43-4.428 3.41.334 6.438 2.48 9.28 6.46Zm-3.003 8.283c.196-.356-.022-.715-.35-.748a.546.546 0 0 0-.284.052l-3.82 1.775a.55.55 0 0 1-.283.05.47.47 0 0 1-.384-.276l-2.57-5.885a.527.527 0 0 0-.179-.22.548.548 0 0 0-.27-.1.673.673 0 0 0-.55.222l-4.764 5.166a.567.567 0 0 1-.473.19.471.471 0 0 1-.25-.102l-2.978-2.442a.469.469 0 0 0-.254-.105.618.618 0 0 0-.468.185.585.585 0 0 0-.16.467l1.013 7.822c.01.105.06.203.137.278.078.074.18.118.289.126l12.031 1.182a.597.597 0 0 0 .327-.073c.1-.055.18-.137.232-.236l4.015-7.33" fill="url(#a)"/><path d="m29.144 6.862 1.228.879c.29.407.563.811.817 1.213l-1.227-.88c-.253-.4-.526-.804-.818-1.212Z" fill="#B38600"/><path d="m29.962 8.075 1.227.88a19.94 19.94 0 0 1 1.56 2.938l-1.228-.88a20.08 20.08 0 0 0-1.56-2.938" fill="#B88A00"/><path d="m31.517 11.014 1.228.88c.813 1.932 1.159 3.79 1.04 5.595l-1.227-.88c.119-1.804-.229-3.662-1.041-5.595Z" fill="#BD8E00"/><path d="m32.558 16.61 1.228.879c-.035.526-.11 1.05-.223 1.565l-1.228-.879c.113-.516.187-1.04.223-1.566Z" fill="#B88A00"/><path d="m32.335 18.175 1.228.88c-.084.382-.19.76-.315 1.131l-1.228-.876c.125-.372.23-.75.315-1.132" fill="#B38600"/><path d="m32.02 19.31 1.228.879c-.113.337-.244.672-.391 1.006l-1.227-.879c.142-.334.284-.67.39-1.006Z" fill="#AD8300"/><path d="m31.63 20.313 1.227.88a11.97 11.97 0 0 1-.478.966l-1.227-.88c.174-.321.335-.643.478-.966Z" fill="#A87F00"/><path d="m31.155 21.281 1.227.88c-.181.33-.378.66-.592.988l-1.228-.88c.214-.328.411-.657.593-.988Z" fill="#A37B00"/><path d="m30.56 22.27 1.227.879c-.234.356-.488.711-.761 1.065l-1.227-.878c.273-.354.527-.71.76-1.067Z" fill="#9E7700"/><path d="m29.799 23.336 1.227.878c-.313.408-.654.814-1.023 1.218l-1.228-.88c.369-.403.71-.809 1.024-1.216Z" fill="#997300"/><path d="m28.775 24.555 1.228.88c-.445.488-.93.976-1.452 1.462l-1.228-.878a24.561 24.561 0 0 0 1.452-1.464Z" fill="#946F00"/><path d="m27.325 26.016 1.229.878a32.576 32.576 0 0 1-2.366 1.99l-.017.013-1.229-.878.018-.014a32.8 32.8 0 0 0 2.365-1.989Z" fill="#8F6C00"/><path d="m24.94 28.02 1.228.877c-.977.756-2 1.453-3.062 2.09l-1.228-.879a31.483 31.483 0 0 0 3.062-2.089Z" fill="#8A6800"/><path d="m21.878 30.108 1.228.88c-3.018 1.794-5.774 2.569-8.331 2.324l-1.229-.878c2.553.243 5.314-.537 8.332-2.326Z" fill="#856400"/><defs><linearGradient id="a" x1="28.982" y1="4.458" x2="6.721" y2="29.996" gradientUnits="userSpaceOnUse"><stop stop-color="#FFB900"/><stop offset=".29" stop-color="#FFE89F"/><stop offset="1" stop-color="#A37207"/></linearGradient></defs></svg>
